!!!COM: Palestrina, Giovanni Perluigi da
!!!OPR: Virtute magna
!!!OTL: Sanctus
**kern	**kern	**kern	**kern
*Ibass	*Itenor	*Icalto	*Icant
!Bassus	!Tenor	!Altus	!Cantus
*clefF4	*clefGv2	*clefG2	*clefG2
*k[]	*k[]	*k[]	*k[]
*G:mix	*G:mix	*G:mix	*G:mix
*M4/2	*M4/2	*M4/2	*M4/2
=1	=1	=1	=1
1C	0r	0r	0r
1G	.	.	.
=2	=2	=2	=2
1G	0r	1r	0r
1F	.	1c	.
=3	=3	=3	=3
2E	0r	1g	1g
1G	.	.	.
.	.	1g	1dd
4F	.	.	.
4E	.	.	.
=4	=4	=4	=4
4D	0r	1f	1dd
4E	.	.	.
4F	.	.	.
4G	.	.	.
4A	.	1e	1cc
4B	.	.	.
2c	.	.	.
=5	=5	=5	=5
2.G	0r	2.g	2b
.	.	.	1dd
4A	.	8f	.
.	.	8e	.
2B	.	2d	.
2c	.	2e	4cc
.	.	.	4b
=6	=6	=6	=6
2d	0r	2f	2a
2G	.	2g	2b
2A	.	2e	[1cc
2F	.	2f	.
=7	=7	=7	=7
0G	1r	1d	2cc]
.	.	.	4b
.	.	.	4a
.	1G	2r	1b
.	.	[2g	.
=8	=8	=8	=8
0r	1d	2g]	1.a
.	.	4f	.
.	.	4e	.
.	1d	2f	.
.	.	2d	2b
=9	=9	=9	=9
1C	1c	1e	1cc
1G	2B	4d	1dd
.	.	4c	.
.	[2d	4B	.
.	.	4A	.
=10	=10	=10	=10
1G	2d]	2B	1g
.	4c	1e	.
.	4B	.	.
1F	2.A	.	1a
.	.	2d	.
.	4B	.	.
=11	=11	=11	=11
2E	2c	1e	2.g
1G	2B	.	.
.	.	.	4a
.	2.d	1r	2b
4F	.	.	[2a
4E	4c	.	.
=12	=12	=12	=12
2D	1B	1r	2a]
2E	.	.	2g#
1F	2A	1c	1a
.	[2c	.	.
=13	=13	=13	=13
2.E	4c]	1g	0r
.	4B	.	.
.	4G	.	.
4F	4A	.	.
2G	2B	1g	.
2E	[2c	.	.
=14	=14	=14	=14
1D	2c]	1f	1r
.	2B	.	.
1C	1c	2e	1g
.	.	[2g	.
=15	=15	=15	=15
1r	0r	2g]	1dd
.	.	4f	.
.	.	4e	.
1D	.	4d	1dd
.	.	4e	.
.	.	[2f	.
=16	=16	=16	=16
1A	1c	4f]	1cc
.	.	4e	.
.	.	1e	.
1G	1g	.	2b
.	.	4d	[2dd
.	.	4c	.
=17	=17	=17	=17
1r	1g	2B	2dd]
.	.	2c	4cc
.	.	.	4b
1D	1f	1d	2a
.	.	.	2b
=18	=18	=18	=18
1A	1e	2.c	1cc
.	.	4d	.
2.G	[1g	2e	1b
.	.	[2d	.
4A	.	.	.
=19	=19	=19	=19
4B	2g]	4d]	2.dd
4c	.	4e	.
1d	4f	4f	.
.	4e	4g	4ee
.	2d	1a	2ff
2c#	2e	.	[2ee
=20	=20	=20	=20
1d	1f	0a	4ee]
.	.	.	4dd
.	.	.	1dd
1A	1e	.	.
.	.	.	2cc#
=21	=21	=21	=21
1D	0d	2.f	[0dd
.	.	4g	.
2r	.	2a	.
[2G	.	[2b-	.
=22	=22	=22	=22
4G]	1r	2b-]	1dd]
4G	.	.	.
2F	.	2a	.
1B-	2r	4g	1r
.	.	4f	.
.	[2d	4f	.
.	.	8e	.
.	.	8d	.
=23	=23	=23	=23
1A	4d]	1e	0r
.	4d	.	.
.	2c	.	.
4D	1f	1d	.
4E	.	.	.
4F	.	.	.
4G	.	.	.
=24	=24	=24	=24
4A	1e	0r	2r
4G	.	.	.
4A	.	.	2.a
4B	.	.	.
2.c	4A	.	.
.	4B	.	4a
.	4c	.	2g
4B	4d	.	.
=25	=25	=25	=25
1A	4e	1r	1cc
.	4d	.	.
.	4e	.	.
.	4f#	.	.
1G	2.g	2r	1b
.	.	[2d	.
.	4f	.	.
=26	=26	=26	=26
1A	2e	4d]	1a
.	.	4d	.
.	2e	2c	.
4D	1d	1f	2r
4E	.	.	.
4F	.	.	[2dd
4G	.	.	.
=27	=27	=27	=27
1A	0r	1e	4dd]
.	.	.	4dd
.	.	.	2cc
1D	.	4d	1ff
.	.	4e	.
.	.	4f	.
.	.	4g	.
=28	=28	=28	=28
0r	0r	4a	2ee
.	.	4b	.
.	.	2.cc	4a
.	.	.	4b
.	.	.	4cc
.	.	4b	4dd
.	.	4g	4ee
.	.	4a	4cc
=29	=29	=29	=29
0r	2r	2.b-	2.dd
.	2.d	.	.
.	.	4a	4cc
.	.	4f	4a
.	4d	4g	4b
.	2c	[2a	[2cc
=30	=30	=30	=30
0r	1e	4a]	4cc]
.	.	4g	4b
.	.	1g	4b
.	.	.	8a
.	.	.	8g
.	1d	.	1a
.	.	2f#	.
=31	=31	=31	=31
2r	4G	2.g	2.g
.	4A	.	.
2.G	4B	.	.
.	4c	4f#	4a
.	4d	2g	4b
4G	4e	.	4cc
2F	[2f	[2a	[2dd
=32	=32	=32	=32
1A	4f]	2a]	4dd]
.	4e	.	4cc
.	4d	2f	1cc
.	4c	.	.
1G	1d	1g	.
.	.	.	2b
=33	=33	=33	=33
2.C	2.c	1e	1cc
4D	4B	.	.
4E	4G	2r	1r
4F	4A	.	.
2G	2B	[2d	.
=34	=34	=34	=34
2.F	2A	4d]	0r
.	.	4d	.
.	1c	2c	.
4E	.	.	.
1D	.	1f	.
.	2B	.	.
=35	=35	=35	=35
1C	2.c	1e	2r
.	.	.	2.g
.	4B	.	.
1D	2A	1d	.
.	.	.	4g
.	2A	.	2f
=36	=36	=36	=36
1G	2G	2.d	1b-
.	2.d	.	.
.	.	4e	.
1A	.	2f	1a
.	4d	.	.
.	2c	2e	.
=37	=37	=37	=37
1B-	1.f	2r	4d
.	.	.	4e
.	.	2.d	4f
.	.	.	4g
1A	.	.	4a
.	.	4d	4b
.	2e	2c	4cc
.	.	.	4a
=38	=38	=38	=38
1D	2.d	1f	2b-
.	.	.	2.a
.	4c	.	.
2E	2B	1e	.
.	.	.	4g
2C	2c	.	[2g
=39	=39	=39	=39
0D	1.A	1.d	2g]
.	.	.	4f
.	.	.	4e
.	.	.	2f#
.	2A	2d	2f#
=40	=40	=40	=40
[0G	[0G	[0d	[0g
=41	=41	=41	=41
0G]	0G]	0d]	0g]
*	*	*	*-
!! Pleni
*Ibass	*Itenor	*Icalto
!Bassus	!Tenor	!Altus
*clefF4	*clefGv2	*clefG2
*k[]	*k[]	*k[]
*G:mix	*G:mix	*G:mix
*M4/2	*M4/2	*M4/2
=42	=42	=42
0r	1.d	0r
.	2A	.
=43	=43	=43
0r	1c	1.g
.	1B	.
.	.	2d
=44	=44	=44
0r	2.A	1f
.	4G	.
.	4A	1e
.	4B	.
.	[2c	.
=45	=45	=45
1.G	2c]	2.d
.	4B	.
.	4A	4c
.	2B	4d
.	.	4e
2D	4A	[2f
.	4G	.
=46	=46	=46
1F	1A	4f]
.	.	4e
.	.	1d
1E	1G	.
.	.	2c#
=47	=47	=47
2.D	2r	1d
.	1d	.
4C	.	.
4D	.	1r
4E	.	.
2F	2A	.
=48	=48	=48
4C	1c	2r
4D	.	.
4E	.	1g
4F	.	.
1G	1B	.
.	.	2d
=49	=49	=49
4F	2.A	1f
4G	.	.
4A	.	.
4B	4G	.
1c	4A	1e
.	4B	.
.	[2c	.
=50	=50	=50
1G	2c]	2.d
.	4B	.
.	4A	4c
1r	4B	4d
.	4c	4e
.	4d	4f
.	4e	4g
=51	=51	=51
2r	1f	0a
1d	.	.
.	2d	.
2A	[2f	.
=52	=52	=52
1c	4f]	2g
.	4e	.
.	2.e	2c
1B	.	2d
.	4d	.
.	[2d	2d
=53	=53	=53
1A	2d]	1e
.	2c	.
2.D	2.f	2.d
4C	4e	4e
=54	=54	=54
4D	2d	4f
4E	.	4g
2F	2c	2.a
1G	2B	.
.	.	4g
.	4A	[2g
.	4G	.
=55	=55	=55
1D	1A	2g]
.	.	2f#
2r	1G	[1g
[2G	.	.
=56	=56	=56
4G]	2r	1g]
4A	.	.
4B	2.G	.
4c	.	.
2d	.	1r
.	4A	.
4G	4B	.
4A	4c	.
=57	=57	=57
4B	2d	0r
4c	.	.
2.d	4G	.
.	4A	.
.	4B	.
4c	4c	.
2B	4d	.
.	4e	.
=58	=58	=58
2.A	4f	0r
.	4g	.
.	2.a	.
4B	.	.
2c	.	.
.	4g	.
2B	[2g	.
=59	=59	=59
1A	2g]	1r
.	2f#	.
[1G	1g	2r
.	.	[2G
=60	=60	=60
0G]	2r	4G]
.	.	4A
.	2.G	4B
.	.	4c
.	.	2d
.	4A	.
.	4B	4G
.	4c	4A
=61	=61	=61
1r	2d	4B
.	.	4c
.	4G	2.d
.	4A	.
2r	4B	.
.	4c	4e
[2D	4d	4f
.	4e	4g
=62	=62	=62
4D]	2.f	2.a
4E	.	.
4F	.	.
4G	8e	8g
.	8d	8f
2A	2c	2e
4D	[2f	2d
4E	.	.
=63	=63	=63
4F	2f]	1a
4G	.	.
4A	4e	.
4B	4d	.
2c	2e	2g
2d	[2f	2f
=64	=64	=64
1B-	4f]	1d
.	4e	.
.	1d	.
1A	.	1e
.	2c#	.
=65	=65	=65
2r	1d	1f
1d	.	.
.	1A	1e
2c	.	.
=66	=66	=66
2.B	2r	1d
.	1d	.
4A	.	.
4B	.	1r
4G	.	.
2A	2c	.
=67	=67	=67
1.G	2.B	0r
.	4A	.
.	4B	.
.	4G	.
2F	2A	.
=68	=68	=68
2.E	2G	2r
.	2c	1g
8D	.	.
8C	.	.
1D	2B	.
.	2A	2f
=69	=69	=69
1C	2c	2.e
.	1g	.
.	.	4d
1r	.	4e
.	.	4c
.	2f	2d
=70	=70	=70
2r	2.e	4c
.	.	4d
1c	.	4e
.	4d	4f
.	4e	1g
.	4c	.
2B	[2d	.
=71	=71	=71
2.A	4d]	2f
.	4c	.
.	1c	2.e
4G	.	.
4A	.	.
4F	.	4f
[2G	4B	2d
.	4A	.
=72	=72	=72
2G]	2B	2e
2F	2A	1d
1E	1G	.
.	.	2c#
=73	=73	=73
1D	2r	4d
.	.	4e
.	1d	4f
.	.	4d
1A	.	1e
.	2c	.
=74	=74	=74
2r	2.B	0d
1G	.	.
.	4A	.
.	4B	.
.	4G	.
2F	2A	.
=75	=75	=75
2.E	2G	0r
.	1g	.
4D	.	.
4E	.	.
4C	.	.
2D	2f	.
=76	=76	=76
2C	2.e	0r
1c	.	.
.	4d	.
.	4e	.
.	4c	.
2B	2d	.
=77	=77	=77
2.A	2c	0r
.	1f	.
4G	.	.
4A	.	.
4F	.	.
2G	2e	.
=78	=78	=78
2F	2d	2r
2E	2c	1g
1D	2B	.
.	[2A	2f
=79	=79	=79
2C	4A]	2.e
.	4G	.
2C	1c	.
.	.	4d
2C	.	4e
.	.	4c
2G	2B	2d
=80	=80	=80
0C	2.e	2.c
.	4d	4d
.	1c	1e
=81	=81	=81
[0G	[0B	[0d
=82	=82	=82
0G]	0B]	0d]
*-	*-	*-
!! Hosanna
**kern	**kern	**kern	**kern
*Ibass	*Itenor	*Icalto	*Icant
!Bassus	!Tenor	!Altus	!Cantus
*clefF4	*clefGv2	*clefG2	*clefG2
*k[]	*k[]	*k[]	*k[]
*G:mix	*G:mix	*G:mix	*G:mix
*M4/2	*M4/2	*M4/2	*M4/2
=83	=83	=83	=83
0r	1A	0r	[0a
.	[1d	.	.
=84	=84	=84	=84
1A	2d]	0r	1a_
.	2c	.	.
2d	2d	.	1a_
2c#	2e	.	.
=85	=85	=85	=85
1.d	1f	1r	0a]
.	1e	1A	.
2c	.	.	.
=86	=86	=86	=86
1B-	2r	1.d	1g
.	2d	.	.
1A	2f	.	1a
.	2e	2c	.
=87	=87	=87	=87
1r	2f	2d	0a
.	2c	2e	.
1D	2d	1f	.
.	[2A	.	.
=88	=88	=88	=88
1.A	4A]	1e	1.cc
.	4B	.	.
.	4c	.	.
.	4d	.	.
.	2.e	1r	.
2G	.	.	2b
.	4d	.	.
=89	=89	=89	=89
2A	2c	2r	2a
2B	2B	2d	1g
1c	1A	2e	.
.	.	2c	2f#
=90	=90	=90	=90
1B	1G	2.d	2g
.	.	.	2dd
.	.	4e	.
2.A	1r	4f	2cc
.	.	4g	.
.	.	[2a	4a
4G	.	.	4b
=91	=91	=91	=91
4A	0r	4a]	4cc
4B	.	4g	4dd
2c	.	2e	2.ee
2d	.	2f	.
.	.	.	4dd
2G	.	2g	[2dd
=92	=92	=92	=92
1A	0r	2e	2dd]
.	.	2.a	2cc
1r	.	.	2.b
.	.	4g	.
.	.	[2g	.
.	.	.	8a
.	.	.	8g
=93	=93	=93	=93
1D	[0d	2g]	1a
.	.	2f#	.
[1G	.	1g	2g
.	.	.	[2b-
=94	=94	=94	=94
2G]	1d_	0r	2b-]
2F	.	.	2a
2G	1d_	.	2g
[2B-	.	.	2f
=95	=95	=95	=95
4B-]	0d]	1r	1b-
4A	.	.	.
1G	.	.	.
.	.	2r	1a
2F	.	2d	.
=96	=96	=96	=96
1E	1c	1.g	0r
1D	1d	.	.
.	.	2f	.
=97	=97	=97	=97
2G	[0d	2g	0r
2F#	.	2a	.
1G	.	1b-	.
=98	=98	=98	=98
0D	1d]	[0a	2r
.	.	.	2a
.	[1f	.	[1dd
=99	=99	=99	=99
2.A	2f]	1a]	2dd]
.	2e	.	2cc
4G	.	.	.
2F	2d	1r	2dd
2E	[2c	.	2ee
=100	=100	=100	=100
1D	2c]	0r	1.ff
.	2B	.	.
[1C	1c	.	.
.	.	.	4ee
.	.	.	4dd
=101	=101	=101	=101
1C]	2r	[0g	1.ee
.	2G	.	.
2r	[1c	.	.
2C	.	.	4dd
.	.	.	4cc
=102	=102	=102	=102
1G	2c]	1g_	2dd
.	2B	.	2dd
2C	2c	1g_	2ee
2G	2d	.	2b
=103	=103	=103	=103
1C	2.e	0g]	2.cc
.	4d	.	4dd
1r	2c	.	2ee
.	2B	.	2dd
=104	=104	=104	=104
1D	1A	1f	1dd
[1G	2r	2g	[1dd
.	2G	[2b-	.
=105	=105	=105	=105
2G]	1.d	2b-]	1dd]
2F	.	2a	.
2G	.	2g	1r
2A	2c	[2f	.
=106	=106	=106	=106
2B-	2d	4f]	2r
.	.	4e	.
4A	2e	2c	1a
4G	.	.	.
2F	1f	1d	.
2D	.	.	[2dd
=107	=107	=107	=107
1A	2e	2r	2dd]
.	2.f	2A	2cc
1r	.	[1a	2dd
.	4e	.	.
.	2c	.	2ee
=108	=108	=108	=108
1D	1d	1a]	2.ff
.	.	.	4ee
[1A	1e	[1a	4cc
.	.	.	4dd
.	.	.	[2ee
=109	=109	=109	=109
2A]	2.f	1a]	4ee]
.	.	.	4dd
2F	.	.	1dd
.	8e	.	.
.	8d	.	.
2G	1e	1r	.
2A	.	.	2cc#
=110	=110	=110	=110
2.B-	2d	2r	[0dd
.	2G	2d	.
4A	.	.	.
1G	1B-	[1g	.
=111	=111	=111	=111
2D	1A	2g]	1dd_
2D	.	2f	.
2G	1r	2g	1dd_
2F	.	2a	.
=112	=112	=112	=112
2G	2r	2.b-	0dd]
2.B-	2G	.	.
.	.	4a	.
.	2d	4f	.
4G	.	4g	.
2F	2d	[2a	.
=113	=113	=113	=113
2G	2B	4a]	2r
.	.	4g	.
2C	2c	1g	2g
1D	1A	.	[1dd
.	.	2f#	.
=114	=114	=114	=114
1G	2G	[0g	2dd]
.	2G	.	2b
2r	2c	.	2cc
2G	2B	.	2dd
=115	=115	=115	=115
2.c	4c	0g]	2.ee
.	4d	.	.
.	4e	.	.
4B	4f	.	4dd
4G	2g	.	4b
4A	.	.	4cc
2B	2d	.	2dd
=116	=116	=116	=116
2c	2.e	[0g	4dd
.	.	.	4cc
2C	.	.	1cc
.	8d	.	.
.	8c	.	.
2G	1d	.	.
2G	.	.	2b
=117	=117	=117	=117
0C	0e	0g]	0cc
=118	=118	=118	=118
[0G	[0d	[0g	[0b
=119	=119	=119	=119
0G]	0d]	0g]	0b]
==	==	==	==
*-	*-	*-	*-
!!!CDT: 1525/^1526/-1594/2/2
!!!OCY: Italia
!!!AGN: Mass (Parody)
!!!AST: renaissance, vocal
!!!ASW: Motet 1532 (Lasson)
!!!PWK: Masses, Book I
!!!RNB: Cadence finals: D
!!!YOR: Le Opere Complete, v. 1, p. 62
!!!YOO: Rome, Italy: Fratelli Scalera
!!!END: 1992//
!!!EED: John Miller
!!!YEC: Copyright 2000, John Miller
!!!YEN: United States of America
!!!YEM: Rights to all derivative electronic formats reserved.
!!!YEM: Refer to licensing agreement for further details.
!!!YEM: This file must be accompanied by the licensing agreement.
!!!YEM: A copy of the licensing agreement may be found at http://www.music-cog.ohio-state.edu/HumdrumDatabases/Palestrina/license.txt
!!!EMD: converted to Humdrum by Bret Aarden
